X:1
T:Aspinwall, 10.10.11.11
T:Charles Hutchinson Gabriel, 1912
T:Aspinwall, 10.10.11.11
T:Public Domain
C:Charles Hutchinson Gabriel, 1912
Z:Public Domain
%%score ( 1 2 ) ( 3 4 )
L:1/8
M:3/4
K:C
V:1 treble 
V:2 treble 
V:3 bass 
V:4 bass 
V:1
 [EG]2 | [Ec]2 [Ec]2 [Ec]2 | [Ec]4 G2 | E2 D2 C2 | [EG]4 G2 | [Fd]2 [Fd]2 [Fd]2 | %6
 [Fd]2 [Ec]2 [FB]2 | [Ec]2 [Gc]2 [Fc]2 | [Ec]4 [EG]2 | [Ge]2 [Ge]2 [Ge]2 | [^Ge]2 [Gd]2 [EB]2 | %11
 [Ec]2 [Ec]2 [Ec]2 | (c2 B2) [^DA]2 | [EG]2 [DA]2 [GB]2 | [Gc]2 [Gd]2 [Ge]2 | [^Fd]2 [FA]2 [=FB]2 | %16
 [Ec]4 |] %17
V:2
 x2 | x6 | x4 G2 | E2 D2 C2 | x4 G2 | x6 | x6 | x6 | x6 | x6 | x6 | x6 | F4 x2 | x6 | x6 | x6 | %16
 x4 |] %17
V:3
 [C,C]2 | [C,G,]2 [C,G,]2 [C,G,]2 | [C,G,]4 G,2 | E,2 D,2 C,2 | [G,,G,B,]4 [G,B,]2 | %5
 [G,B,]2 [G,B,]2 [G,B,]2 | (B,2 C2) [G,D]2 | [C,C]2 [C,G,]2 [C,A,]2 | [C,G,]4 [C,C]2 | %9
 [C,C]2 [C,C]2 [C,C]2 | [E,B,]2 [E,B,]2 [^G,D]2 | [A,C]2 [A,C]2 [G,_B,]2 | (A,2 B,2) [^F,C]2 | %13
 [G,C]2 [^F,C]2 [=F,D]2 | [E,C]2 [D,B,]2 [C,C]2 | [D,C]2 (CD) (DG,) | [C,G,]4 |] %17
V:4
 x2 | x6 | x4 G,2 | E,2 D,2 C,2 | x6 | x6 | G,4 x2 | x6 | x6 | x6 | x6 | x6 | ^F,4 x2 | x6 | x6 | %15
 x2 D,2 G,,2 | x4 |] %17

